src/22/actions/artifact.svg

<svg xmlns="http://www.w3.org/2000/svg" viewBox="0 0 22 22"><path d="M4 3v6h14V3H4zm1 1h12v4H5V4zm0 6v1h2v-1H5zm5 0v1h2v-1h-2zm5 0v1h2v-1h-2zM4 12v7h10l4-4v-3H4zm1 1h12v1h-4v4H5v-5z" fill="currentColor" color="#5d656b"/></svg>

<svg xmlns="http://www.w3.org/2000/svg" viewBox="0 0 22 22">
  <defs id="defs3051">
    <style type="text/css" id="current-color-scheme">
      .ColorScheme-Text {
        color:#5d656b;
      }
      </style>
  </defs>
 <path 
     style="fill:currentColor;fill-opacity:1;stroke:none" 
     d="M 4 3 L 4 9 L 18 9 L 18 8 L 18 3 L 17 3 L 5 3 L 4 3 z M 5 4 L 17 4 L 17 8 L 5 8 L 5 4 z M 5 10 L 5 11 L 7 11 L 7 10 L 5 10 z M 10 10 L 10 11 L 12 11 L 12 10 L 10 10 z M 15 10 L 15 11 L 17 11 L 17 10 L 15 10 z M 4 12 L 4 13 L 4 19 L 5 19 L 13 19 L 14 19 L 18 15 L 18 13.59375 L 18 13 L 18 12 L 4 12 z M 5 13 L 17 13 L 17 14 L 13 14 L 13 15 L 13 18 L 5 18 L 5 13 z "
     class="ColorScheme-Text"
     />
 </svg>
